flaticon/interaction/file-2.svg

<svg xmlns="http://www.w3.org/2000/svg" width="32" height="32" viewBox="0 0 24 24">
    <path d="M14.5625 8.800781L4.5625 8.800781C4.339844 8.800781 4.160156 8.980469 4.160156 9.199219 4.160156 9.421875 4.339844 9.601562 4.5625 9.601562L14.5625 9.601562C14.78125 9.601562 14.960938 9.421875 14.960938 9.199219 14.960938 8.980469 14.78125 8.800781 14.5625 8.800781zM4.5625 6.398438L8.5625 6.398438C8.78125 6.398438 8.960938 6.222656 8.960938 6 8.960938 5.777344 8.78125 5.601562 8.5625 5.601562L4.5625 5.601562C4.339844 5.601562 4.160156 5.777344 4.160156 6 4.160156 6.222656 4.339844 6.398438 4.5625 6.398438zM14.960938 12.398438C14.960938 12.179688 14.78125 12 14.5625 12L4.5625 12C4.339844 12 4.160156 12.179688 4.160156 12.398438 4.160156 12.621094 4.339844 12.800781 4.5625 12.800781L14.5625 12.800781C14.78125 12.800781 14.960938 12.621094 14.960938 12.398438zM12.160156 15.601562C12.160156 15.378906 11.980469 15.199219 11.761719 15.199219L4.5625 15.199219C4.339844 15.199219 4.160156 15.378906 4.160156 15.601562 4.160156 15.820312 4.339844 16 4.5625 16L11.761719 16C11.980469 16 12.160156 15.820312 12.160156 15.601562zM4.5625 18.398438C4.339844 18.398438 4.160156 18.578125 4.160156 18.800781 4.160156 19.019531 4.339844 19.199219 4.5625 19.199219L9.761719 19.199219C9.980469 19.199219 10.160156 19.019531 10.160156 18.800781 10.160156 18.578125 9.980469 18.398438 9.761719 18.398438zM4.5625 18.398438"/>
    <path d="M 0.960938 0.800781 L 12.5625 0.800781 L 12.5625 6.398438 L 18.160156 6.398438 L 18.160156 14 L 18.960938 14 L 18.960938 5.835938 L 13.125 0 L 0.160156 0 L 0.160156 24 L 13.761719 24 L 13.761719 23.199219 L 0.960938 23.199219 Z M 13.359375 1.367188 L 17.59375 5.601562 L 13.359375 5.601562 Z M 13.359375 1.367188"/>
    <path d="M 23.695312 19.457031 C 22.289062 17.3125 20.414062 16.101562 18.394531 16.019531 C 18.285156 16.007812 18.175781 16 18.066406 16 C 17.871094 16 17.679688 16.019531 17.496094 16.058594 C 15.65625 16.296875 13.964844 17.480469 12.667969 19.457031 L 12.484375 19.742188 L 12.625 19.960938 C 14.082031 22.179688 16.039062 23.402344 18.140625 23.402344 C 20.242188 23.402344 22.199219 22.179688 23.652344 19.960938 L 23.839844 19.675781 Z M 20.03125 18.761719 C 20.03125 19.847656 19.148438 20.726562 18.066406 20.726562 C 16.984375 20.726562 16.101562 19.847656 16.101562 18.761719 C 16.101562 17.824219 16.765625 17.042969 17.644531 16.847656 C 17.824219 16.828125 18.003906 16.8125 18.183594 16.8125 C 18.191406 16.8125 18.199219 16.8125 18.210938 16.8125 C 19.222656 16.890625 20.03125 17.730469 20.03125 18.761719 Z M 18.140625 22.605469 C 16.386719 22.605469 14.726562 21.589844 13.441406 19.738281 C 14.066406 18.824219 14.78125 18.113281 15.554688 17.617188 C 15.394531 17.96875 15.304688 18.355469 15.304688 18.761719 C 15.304688 20.289062 16.542969 21.527344 18.066406 21.527344 C 19.589844 21.527344 20.828125 20.285156 20.828125 18.761719 C 20.828125 18.277344 20.703125 17.820312 20.480469 17.421875 C 21.363281 17.90625 22.179688 18.664062 22.878906 19.675781 C 21.589844 21.566406 19.914062 22.605469 18.140625 22.605469 Z M 18.140625 22.605469"/>
</svg>

<svg xmlns="http://www.w3.org/2000/svg" width="32" height="32" viewBox="0 0 24 24">
    <path d="M14.563 8.8h-10a.401.401 0 1 0 0 .802h10a.401.401 0 0 0 0-.801zm0 0M4.563 6.398h4a.398.398 0 1 0 0-.796h-4a.398.398 0 1 0 0 .796zm0 0M14.96 12.398a.4.4 0 0 0-.398-.398h-10a.401.401 0 1 0 0 .8h10c.22 0 .399-.179.399-.402zm0 0M12.16 15.602a.401.401 0 0 0-.398-.403h-7.2a.401.401 0 0 0 0 .8l7.2.001a.4.4 0 0 0 .398-.398zm0 0M4.563 18.398a.401.401 0 0 0 0 .8l5.199.001a.4.4 0 0 0 0-.8zm0 0"/>
    <path d="M.96.8h11.602v5.598h5.598V14h.8V5.836L13.126 0H.16v24h13.602v-.8H.96zm12.4.567l4.234 4.235h-4.235zm0 0"/>
    <path d="M23.695 19.457c-1.406-2.145-3.28-3.355-5.3-3.437a2.742 2.742 0 0 0-.898.04c-1.84.237-3.532 1.42-4.829 3.397l-.184.285.141.219c1.457 2.219 3.414 3.441 5.516 3.441 2.101 0 4.058-1.222 5.511-3.441l.188-.285zm-3.664-.695a1.966 1.966 0 0 1-1.965 1.965 1.966 1.966 0 0 1-1.964-1.965c0-.938.664-1.719 1.543-1.914.18-.02.359-.035.539-.035h.027a1.966 1.966 0 0 1 1.82 1.949zm-1.89 3.843c-1.754 0-3.414-1.015-4.7-2.867.625-.914 1.34-1.625 2.114-2.12a2.765 2.765 0 0 0 2.512 3.91 2.767 2.767 0 0 0 2.413-4.106c.883.484 1.7 1.242 2.399 2.254-1.29 1.89-2.965 2.93-4.738 2.93zm0 0"/>
</svg>
